data/icons/io.github.finefindus.Hieroglyphic-symbolic.svg

<?xml version="1.0" encoding="UTF-8"?>
<svg height="16px" viewBox="0 0 16 16" width="16px" xmlns="http://www.w3.org/2000/svg" xmlns:xlink="http://www.w3.org/1999/xlink">
    <filter id="a" height="100%" width="100%" x="0%" y="0%">
        <feColorMatrix color-interpolation-filters="sRGB" values="0 0 0 0 1 0 0 0 0 1 0 0 0 0 1 0 0 0 1 0"/>
    </filter>
    <mask id="b">
        <g filter="url(#a)">
            <rect fill-opacity="0.4" height="19.2" width="19.2" x="-1.6" y="-1.6"/>
        </g>
    </mask>
    <linearGradient id="c" gradientUnits="userSpaceOnUse">
        <stop offset="0" stop-color="#b5835a"/>
        <stop offset="1" stop-color="#b5835a" stop-opacity="0"/>
    </linearGradient>
    <linearGradient id="d" gradientTransform="matrix(-5 0 0 1 -62 -156)" x1="-38" x2="-30" xlink:href="#c" y1="244" y2="244"/>
    <clipPath id="e">
        <rect height="152" width="192"/>
    </clipPath>
    <mask id="f">
        <g filter="url(#a)">
            <rect fill-opacity="0.42" height="19.2" width="19.2" x="-1.6" y="-1.6"/>
        </g>
    </mask>
    <linearGradient id="g" gradientTransform="matrix(2.75 0 0 1 142.5 -156)" x1="-38" x2="-30" xlink:href="#c" y1="244" y2="244"/>
    <clipPath id="h">
        <rect height="152" width="192"/>
    </clipPath>
    <mask id="i">
        <g filter="url(#a)">
            <rect fill-opacity="0.85" height="19.2" width="19.2" x="-1.6" y="-1.6"/>
        </g>
    </mask>
    <clipPath id="j">
        <rect height="152" width="192"/>
    </clipPath>
    <g mask="url(#b)">
        <g clip-path="url(#e)" transform="matrix(1 0 0 1 -168 -16)">
            <path d="m 118.589844 44 h -33.457032 c -5.199218 0 -9.414062 3.582031 -9.414062 8 v 72 c 0 4.417969 4.214844 8 9.414062 8 h 33.457032 c 5.195312 0 9.410156 -3.582031 9.410156 -8 v -72 c 0 -4.417969 -4.214844 -8 -9.410156 -8 z m 0 0" fill="url(#d)"/>
        </g>
    </g>
    <g mask="url(#f)">
        <g clip-path="url(#h)" transform="matrix(1 0 0 1 -168 -16)">
            <path d="m 38 44 h 22 v 88 h -22 z m 0 0" fill="url(#g)"/>
        </g>
    </g>
    <g mask="url(#i)">
        <g clip-path="url(#j)" fill="none" stroke="#825b3a" stroke-linecap="round" stroke-linejoin="round" transform="matrix(1 0 0 1 -168 -16)">
            <path d="m 63.999997 220.999981 c -6.507819 0.005209 -12.554701 2.651045 -16.000017 7.000008 c 3.445316 4.348963 9.492198 6.9948 16.000017 7.000008 c 6.513029 -0.002604 12.565119 -2.645836 16.013039 -7.000008 c -3.44792 -4.351567 -9.50001 -6.997403 -16.013039 -7.000008 z m 0 0" stroke-width="3.99999" transform="matrix(1.499998 0 0 1.499998 -30.999889 -258.999603)"/>
            <path d="m 80.000015 227.999989 h 18.00002" stroke-width="4" transform="matrix(1.499998 0 0 1.499998 -30.999889 -258.999603)"/>
            <path d="m 68.000002 227.999989 c 0 2.76042 -2.239586 5.000006 -5.000006 5.000006 c -2.760419 0 -5.000005 -2.239586 -5.000005 -5.000006 s 2.239586 -5.000005 5.000005 -5.000005 c 2.76042 0 5.000006 2.239585 5.000006 5.000005 z m 0 0" stroke-width="3.99999" transform="matrix(1.499998 0 0 1.499998 -30.999889 -258.999603)"/>
            <g stroke-width="4">
                <path d="m 65.817708 235.682289 l 16.93231 10.713554" transform="matrix(1.499998 0 0 1.499998 -30.999889 -258.999603)"/>
                <path d="m 85.000021 238 c 1.890627 0 3.580733 1.182293 4.229171 2.960941 c 0.645834 1.778648 0.111979 3.770838 -1.335939 4.986985 c -1.450522 1.216147 -3.505212 1.395835 -5.143235 0.447917" transform="matrix(1.499998 0 0 1.499998 -30.999889 -258.999603)"/>
                <path d="m 63.999997 235.999998 v 13.000015" transform="matrix(1.499998 0 0 1.499998 -30.999889 -258.999603)"/>
                <path d="m 98.000035 39.99998 h -14.278661 c -5.117194 -5.15886 -12.255222 -7.997404 -19.718772 -8.000009 h -0.010417 c -7.458342 0.007813 -14.588558 2.843754 -19.700543 8.000009" transform="matrix(1.499998 0 0 1.499998 -30.999889 11.000096)"/>
            </g>
        </g>
    </g>
    <path d="m 5 10 c -0.550781 0 -1 0.449219 -1 1 v 4 c 0 0.550781 0.449219 1 1 1 s 1 -0.449219 1 -1 v -4 c 0 -0.550781 -0.449219 -1 -1 -1 z m 0 0"/>
    <path d="m 5 1 c -1.625 0 -3.128906 0.523438 -4.382812 1.382812 c -0.21875 0.148438 -0.367188 0.378907 -0.417969 0.640626 c -0.046875 0.257812 0.007812 0.527343 0.15625 0.746093 c 0.152343 0.222657 0.382812 0.371094 0.644531 0.421875 c 0.257812 0.046875 0.527344 -0.007812 0.75 -0.160156 c 0.957031 -0.652344 2.050781 -1.03125 3.25 -1.03125 c 1.984375 0 3.71875 1.042969 4.917969 2.636719 c 0.332031 0.4375 0.957031 0.527343 1.398437 0.195312 s 0.53125 -0.960937 0.195313 -1.402343 c -1.507813 -2 -3.824219 -3.429688 -6.511719 -3.429688 z m 0 0"/>
    <path d="m 9 7 c -0.550781 0 -1 0.449219 -1 1 s 0.449219 1 1 1 h 6 c 0.550781 0 1 -0.449219 1 -1 s -0.449219 -1 -1 -1 z m 0 0"/>
    <path d="m 12 10 c -0.550781 0 -1 0.449219 -1 1 s 0.449219 1 1 1 c 0.457031 0 0.847656 0.296875 0.96875 0.738281 c 0.117188 0.445313 -0.074219 0.898438 -0.46875 1.125 c -0.394531 0.230469 -0.882812 0.167969 -1.207031 -0.15625 c -0.390625 -0.390625 -1.023438 -0.390625 -1.414063 0 s -0.390625 1.023438 0 1.414063 c 0.957032 0.957031 2.449219 1.152344 3.621094 0.476562 c 1.171875 -0.675781 1.75 -2.066406 1.398438 -3.375 c -0.351563 -1.308594 -1.546876 -2.222656 -2.898438 -2.222656 z m 0 0"/>
    <path d="m 6.886719 9.714844 c -0.265625 0 -0.519531 0.105468 -0.707031 0.292968 c -0.390626 0.390626 -0.390626 1.023438 0 1.414063 l 3.699218 3.699219 c 0.390625 0.390625 1.023438 0.390625 1.414063 0 s 0.390625 -1.023438 0 -1.414063 l -3.699219 -3.699219 c -0.1875 -0.1875 -0.441406 -0.292968 -0.707031 -0.292968 z m 0 0"/>
    <path d="m 6 8 c 0 0.550781 -0.449219 1 -1 1 s -1 -0.449219 -1 -1 s 0.449219 -1 1 -1 s 1 0.449219 1 1 z m 0 0"/>
    <path d="m 10.78125 4 c -0.554688 0 -1 0.449219 -1 1 s 0.445312 1 1 1 h 4.21875 c 0.550781 0 1 -0.449219 1 -1 s -0.449219 -1 -1 -1 z m 0 0"/>
    <path d="m 5 4 c -2.113281 0 -3.964844 1.457031 -4.9140625 3.59375 c -0.1132813 0.257812 -0.1132813 0.554688 0 0.8125 c 0.9492185 2.136719 2.8007815 3.59375 4.9140625 3.59375 s 3.964844 -1.457031 4.914062 -3.59375 c 0.113282 -0.257812 0.113282 -0.554688 0 -0.8125 c -0.949218 -2.136719 -2.800781 -3.59375 -4.914062 -3.59375 z m 0 2 c 1.054688 0 2.0625 0.753906 2.777344 2 c -0.714844 1.246094 -1.722656 2 -2.777344 2 s -2.0625 -0.753906 -2.777344 -2 c 0.714844 -1.246094 1.722656 -2 2.777344 -2 z m 0 0"/>
</svg>

<?xml version="1.0" encoding="UTF-8" standalone="no"?>
<!-- Created with Inkscape (http://www.inkscape.org/) -->

<svg
   width="16"
   height="16"
   viewBox="0 0 4.2333332 4.2333333"
   version="1.1"
   id="svg1"
   inkscape:version="1.4 (1:1.4+202410161351+e7c3feb100)"
   sodipodi:docname="io.github.finefindus.Hieroglyphic-symbolic.svg"
   xmlns:inkscape="http://www.inkscape.org/namespaces/inkscape"
   xmlns:sodipodi="http://sodipodi.sourceforge.net/DTD/sodipodi-0.dtd"
   xmlns:xlink="http://www.w3.org/1999/xlink"
   xmlns="http://www.w3.org/2000/svg"
   xmlns:svg="http://www.w3.org/2000/svg">
  <sodipodi:namedview
     id="namedview1"
     pagecolor="#ffffff"
     bordercolor="#000000"
     borderopacity="0.25"
     inkscape:showpageshadow="2"
     inkscape:pageopacity="0.0"
     inkscape:pagecheckerboard="0"
     inkscape:deskcolor="#d1d1d1"
     inkscape:document-units="mm"
     inkscape:zoom="0.49798681"
     inkscape:cx="397.60089"
     inkscape:cy="561.25984"
     inkscape:window-width="1310"
     inkscape:window-height="736"
     inkscape:window-x="56"
     inkscape:window-y="32"
     inkscape:window-maximized="1"
     inkscape:current-layer="layer1" />
  <defs
     id="defs1">
    <mask
       id="b">
      <g
         filter="url(#a)"
         id="g1">
        <rect
           fill-opacity="0.4"
           height="19.200001"
           width="19.200001"
           x="-1.6"
           y="-1.6"
           id="rect1" />
      </g>
    </mask>
    <filter
       id="a"
       height="1"
       width="1"
       x="0"
       y="0">
      <feColorMatrix
         color-interpolation-filters="sRGB"
         values="0 0 0 0 1 0 0 0 0 1 0 0 0 0 1 0 0 0 1 0"
         id="feColorMatrix1" />
    </filter>
    <clipPath
       id="e">
      <rect
         height="152"
         width="192"
         id="rect2"
         x="0"
         y="0" />
    </clipPath>
    <linearGradient
       id="d"
       gradientTransform="matrix(-5,0,0,1,-62,-156)"
       x1="-38"
       x2="-30"
       xlink:href="#c"
       y1="244"
       y2="244" />
    <linearGradient
       id="c"
       gradientUnits="userSpaceOnUse">
      <stop
         offset="0"
         stop-color="#b5835a"
         id="stop1" />
      <stop
         offset="1"
         stop-color="#b5835a"
         stop-opacity="0"
         id="stop2" />
    </linearGradient>
    <mask
       id="f">
      <g
         filter="url(#a)"
         id="g3">
        <rect
           fill-opacity="0.42"
           height="19.200001"
           width="19.200001"
           x="-1.6"
           y="-1.6"
           id="rect3" />
      </g>
    </mask>
    <filter
       id="filter2"
       height="1"
       width="1"
       x="0"
       y="0">
      <feColorMatrix
         color-interpolation-filters="sRGB"
         values="0 0 0 0 1 0 0 0 0 1 0 0 0 0 1 0 0 0 1 0"
         id="feColorMatrix2" />
    </filter>
    <clipPath
       id="h">
      <rect
         height="152"
         width="192"
         id="rect4"
         x="0"
         y="0" />
    </clipPath>
    <linearGradient
       id="g"
       gradientTransform="matrix(2.75,0,0,1,142.5,-156)"
       x1="-38"
       x2="-30"
       xlink:href="#c"
       y1="244"
       y2="244" />
    <mask
       id="i">
      <g
         filter="url(#a)"
         id="g5">
        <rect
           fill-opacity="0.85"
           height="19.200001"
           width="19.200001"
           x="-1.6"
           y="-1.6"
           id="rect5" />
      </g>
    </mask>
    <filter
       id="filter4"
       height="1"
       width="1"
       x="0"
       y="0">
      <feColorMatrix
         color-interpolation-filters="sRGB"
         values="0 0 0 0 1 0 0 0 0 1 0 0 0 0 1 0 0 0 1 0"
         id="feColorMatrix4" />
    </filter>
    <clipPath
       id="j">
      <rect
         height="152"
         width="192"
         id="rect6"
         x="0"
         y="0" />
    </clipPath>
  </defs>
  <g
     inkscape:label="Layer 1"
     inkscape:groupmode="layer"
     id="layer1">
    <g
       id="g24"
       transform="matrix(0.26458333,0,0,0.26458333,-1.2915945e-4,5.3333327e-8)">
      <g
         mask="url(#b)"
         id="g7">
        <g
           clip-path="url(#e)"
           transform="translate(-168,-16)"
           id="g6">
          <path
             d="M 118.58984,44 H 85.132812 c -5.199218,0 -9.414062,3.582031 -9.414062,8 v 72 c 0,4.41797 4.214844,8 9.414062,8 H 118.58984 C 123.78516,132 128,128.41797 128,124 V 52 c 0,-4.417969 -4.21484,-8 -9.41016,-8 z m 0,0"
             fill="url(#d)"
             id="path6"
             style="fill:url(#d)" />
        </g>
      </g>
      <g
         mask="url(#f)"
         id="g9">
        <g
           clip-path="url(#h)"
           transform="translate(-168,-16)"
           id="g8">
          <path
             d="m 38,44 h 22 v 88 H 38 Z m 0,0"
             fill="url(#g)"
             id="path7"
             style="fill:url(#g)" />
        </g>
      </g>
      <g
         mask="url(#i)"
         id="g17">
        <g
           clip-path="url(#j)"
           fill="none"
           stroke="#825b3a"
           stroke-linecap="round"
           stroke-linejoin="round"
           transform="translate(-168,-16)"
           id="g16">
          <path
             d="m 63.999997,220.99998 c -6.507819,0.005 -12.554701,2.65105 -16.000017,7.00001 3.445316,4.34896 9.492198,6.9948 16.000017,7.00001 6.513029,-0.003 12.565119,-2.64584 16.013039,-7.00001 -3.44792,-4.35157 -9.50001,-6.9974 -16.013039,-7.00001 z m 0,0"
             stroke-width="3.99999"
             transform="matrix(1.499998,0,0,1.499998,-30.999889,-258.9996)"
             id="path9" />
          <path
             d="m 80.000015,227.99999 h 18.00002"
             stroke-width="4"
             transform="matrix(1.499998,0,0,1.499998,-30.999889,-258.9996)"
             id="path10" />
          <path
             d="m 68.000002,227.99999 c 0,2.76042 -2.239586,5.00001 -5.000006,5.00001 -2.760419,0 -5.000005,-2.23959 -5.000005,-5.00001 0,-2.76042 2.239586,-5.00001 5.000005,-5.00001 2.76042,0 5.000006,2.23959 5.000006,5.00001 z m 0,0"
             stroke-width="3.99999"
             transform="matrix(1.499998,0,0,1.499998,-30.999889,-258.9996)"
             id="path11" />
          <g
             stroke-width="4"
             id="g15">
            <path
               d="m 65.817708,235.68229 16.93231,10.71355"
               transform="matrix(1.499998,0,0,1.499998,-30.999889,-258.9996)"
               id="path12" />
            <path
               d="m 85.000021,238 c 1.890627,0 3.580733,1.18229 4.229171,2.96094 0.645834,1.77865 0.111979,3.77084 -1.335939,4.98699 -1.450522,1.21614 -3.505212,1.39583 -5.143235,0.44791"
               transform="matrix(1.499998,0,0,1.499998,-30.999889,-258.9996)"
               id="path13" />
            <path
               d="m 63.999997,236 v 13.00001"
               transform="matrix(1.499998,0,0,1.499998,-30.999889,-258.9996)"
               id="path14" />
            <path
               d="M 98.000035,39.99998 H 83.721374 C 78.60418,34.84112 71.466152,32.002576 64.002602,31.999971 h -0.01042 c -7.458342,0.0078 -14.588558,2.843754 -19.700543,8.000009"
               transform="matrix(1.499998,0,0,1.499998,-30.999889,11.000096)"
               id="path15" />
          </g>
        </g>
      </g>
      <path
         d="m 5,10 c -0.550781,0 -1,0.449219 -1,1 v 4 c 0,0.550781 0.449219,1 1,1 0.550781,0 1,-0.449219 1,-1 V 11 C 6,10.449219 5.550781,10 5,10 Z m 0,0"
         id="path17" />
      <path
         d="M 5,1 C 3.375,1 1.871094,1.523438 0.617188,2.382812 0.398438,2.53125 0.25,2.761719 0.199219,3.023438 0.152344,3.28125 0.207031,3.550781 0.355469,3.769531 0.507812,3.992188 0.738281,4.140625 1,4.191406 1.257812,4.238281 1.527344,4.183594 1.75,4.03125 2.707031,3.378906 3.800781,3 5,3 6.984375,3 8.71875,4.042969 9.917969,5.636719 10.25,6.074219 10.875,6.164062 11.316406,5.832031 11.757812,5.5 11.847656,4.871094 11.511719,4.429688 10.003906,2.429688 7.6875,1 5,1 Z m 0,0"
         id="path18" />
      <path
         d="M 9,7 C 8.449219,7 8,7.449219 8,8 8,8.550781 8.449219,9 9,9 h 6 C 15.550781,9 16,8.550781 16,8 16,7.449219 15.550781,7 15,7 Z m 0,0"
         id="path19" />
      <path
         d="m 12,10 c -0.550781,0 -1,0.449219 -1,1 0,0.550781 0.449219,1 1,1 0.457031,0 0.847656,0.296875 0.96875,0.738281 0.117188,0.445313 -0.07422,0.898438 -0.46875,1.125 -0.394531,0.230469 -0.882812,0.167969 -1.207031,-0.15625 -0.390625,-0.390625 -1.023438,-0.390625 -1.414063,0 -0.390625,0.390625 -0.390625,1.023438 0,1.414063 0.957032,0.957031 2.449219,1.152344 3.621094,0.476562 1.171875,-0.675781 1.75,-2.066406 1.398438,-3.375 C 14.546875,10.914062 13.351562,10 12,10 Z m 0,0"
         id="path20" />
      <path
         d="m 6.886719,9.714844 c -0.265625,0 -0.519531,0.105468 -0.707031,0.292968 -0.390626,0.390626 -0.390626,1.023438 0,1.414063 l 3.699218,3.699219 c 0.390625,0.390625 1.023438,0.390625 1.414063,0 0.390625,-0.390625 0.390625,-1.023438 0,-1.414063 L 7.59375,10.007812 C 7.40625,9.820312 7.152344,9.714844 6.886719,9.714844 Z m 0,0"
         id="path21" />
      <path
         d="M 6,8 C 6,8.550781 5.550781,9 5,9 4.449219,9 4,8.550781 4,8 4,7.449219 4.449219,7 5,7 5.550781,7 6,7.449219 6,8 Z m 0,0"
         id="path22" />
      <path
         d="m 10.78125,4 c -0.554688,0 -1,0.449219 -1,1 0,0.550781 0.445312,1 1,1 H 15 C 15.550781,6 16,5.550781 16,5 16,4.449219 15.550781,4 15,4 Z m 0,0"
         id="path23" />
      <path
         d="M 5,4 C 2.886719,4 1.035156,5.457031 0.0859375,7.59375 c -0.1132813,0.257812 -0.1132813,0.554688 0,0.8125 C 1.035156,10.542969 2.886719,12 5,12 c 2.113281,0 3.964844,-1.457031 4.914062,-3.59375 0.113282,-0.257812 0.113282,-0.554688 0,-0.8125 C 8.964844,5.457031 7.113281,4 5,4 Z M 5,6 C 6.054688,6 7.0625,6.753906 7.777344,8 7.0625,9.246094 6.054688,10 5,10 3.945312,10 2.9375,9.246094 2.222656,8 2.9375,6.753906 3.945312,6 5,6 Z m 0,0"
         id="path24" />
    </g>
  </g>
</svg>
